li/gui-calendar-check.svg

<svg role="img" focusable="false" aria-hidden="true" xmlns="http://www.w3.org/2000/svg" viewBox="0 0 14 14" height="1em" width="1em">
  <path d="m 11.96875,4.75 -9.9375,0 C 1.8759297,4.75 1.75,4.62407 1.75,4.46875 L 1.75,3.625 C 1.75,3.00367 2.2536719,2.5 2.875,2.5 L 4,2.5 4,1.28125 C 4,1.12593 4.1259297,1 4.28125,1 l 0.9375,0 C 5.3740703,1 5.5,1.12593 5.5,1.28125 l 0,1.21875 3,0 0,-1.21875 C 8.5,1.12593 8.6259297,1 8.78125,1 l 0.9375,0 C 9.8740703,1 10,1.12593 10,1.28125 L 10,2.5 l 1.125,0 c 0.621328,0 1.125,0.50367 1.125,1.125 l 0,0.84375 C 12.25,4.62407 12.12407,4.75 11.96875,4.75 Z m -9.9375,0.75 9.9375,0 C 12.12407,5.5 12.25,5.62593 12.25,5.78125 l 0,6.09375 C 12.25,12.49633 11.746328,13 11.125,13 l -8.25,0 C 2.2536719,13 1.75,12.49633 1.75,11.875 l 0,-6.09375 C 1.75,5.62593 1.8759297,5.5 2.03125,5.5 Z M 9.842875,7.74876 9.1826641,7.08318 C 9.0732813,6.97291 8.8952031,6.97218 8.7849297,7.08118 L 6.2996875,9.54643 5.2220313,8.46005 C 5.1126484,8.34978 4.9345469,8.34905 4.8242734,8.45805 L 4.1587188,9.11828 c -0.1102735,0.10938 -0.111,0.28746 -0.00159,0.39774 l 1.9359609,1.95161 c 0.1093829,0.11028 0.287461,0.111 0.3977344,0.002 l 3.350461,-3.32356 c 0.1102734,-0.10938 0.111,-0.28746 0.00159,-0.39773 z"/>
</svg>

<svg aria-hidden="true" xmlns="http://www.w3.org/2000/svg" viewBox="0 0 14 14" height="1em" width="1em">
  <path d="M11.969 4.75H2.03a.281.281 0 0 1-.281-.281v-.844c0-.621.504-1.125 1.125-1.125H4V1.281C4 1.126 4.126 1 4.281 1h.938c.155 0 .281.126.281.281V2.5h3V1.281c0-.155.126-.281.281-.281h.938c.155 0 .281.126.281.281V2.5h1.125c.621 0 1.125.504 1.125 1.125v.844a.281.281 0 0 1-.281.281ZM2.03 5.5h9.938c.155 0 .281.126.281.281v6.094c0 .621-.504 1.125-1.125 1.125h-8.25a1.125 1.125 0 0 1-1.125-1.125V5.781c0-.155.126-.281.281-.281Zm7.812 2.249-.66-.666a.282.282 0 0 0-.398-.002L6.3 9.546 5.222 8.46a.282.282 0 0 0-.398-.002l-.665.66a.281.281 0 0 0-.002.398l1.936 1.952c.11.11.288.11.398.002l3.35-3.324a.281.281 0 0 0 .002-.398z"/>
</svg>
